teeny/solid/behance.svg

<svg width="15" height="15" viewBox="0 0 15 15" fill="none" xmlns="http://www.w3.org/2000/svg">
<path fill-rule="evenodd" clip-rule="evenodd" d="M0 2H3C4.65685 2 6 3.34315 6 5C6 5.86358 5.63511 6.64193 5.05111 7.1893C6.18952 7.61522 7 8.71296 7 10C7 11.6569 5.65685 13 4 13H0V2ZM1 8V12H4C5.10457 12 6 11.1046 6 10C6 8.89543 5.10457 8 4 8H1ZM1 7H3C4.10457 7 5 6.10457 5 5C5 3.89543 4.10457 3 3 3H1V7ZM14 4H9V3H14V4ZM8 9.5C8 7.567 9.567 6 11.5 6C13.433 6 15 7.567 15 9.5V10H9.05001C9.28164 11.1411 10.2905 12 11.5 12C12.3334 12 13.0717 11.5927 13.5268 10.964L14.3368 11.5504C13.7018 12.4276 12.6677 13 11.5 13C9.567 13 8 11.433 8 9.5ZM9.05001 9H13.95C13.7184 7.85888 12.7095 7 11.5 7C10.2905 7 9.28164 7.85888 9.05001 9Z" fill="black"/>
</svg>

<svg viewBox="0 0 15 15" xmlns="http://www.w3.org/2000/svg"><path fill-rule="evenodd" d="M0 2h3c1.65 0 3 1.34 3 3 0 .86-.37 1.64-.95 2.18 1.13.42 1.94 1.52 1.94 2.81 0 1.65-1.35 3-3 3h-4v-11Zm1 6v4h3c1.1 0 2-.9 2-2 0-1.11-.9-2-2-2H1Zm0-1h2c1.1 0 2-.9 2-2 0-1.11-.9-2-2-2H1v4Zm13-3H9V3h5v1ZM8 9.5C8 7.56 9.56 6 11.5 6 13.43 6 15 7.56 15 9.5v.5H9.05c.23 1.14 1.24 2 2.44 2 .83 0 1.57-.41 2.02-1.04l.81.58c-.64.87-1.67 1.44-2.84 1.44 -1.94 0-3.5-1.57-3.5-3.5ZM9.05 9h4.89c-.24-1.15-1.25-2-2.45-2 -1.21 0-2.22.85-2.45 2Z"/></svg>
